X:417
T: Chouchou zhenjiao lang moxian
N: C1452
O: China, Hubei, Xinchun
S: I, 445]
R: Shange, Wujuzi]
M: 6/8
L: 1/16
K: E
B2c2e2cBB4 | B2c2cef6 |
f2fec2B6 | e4c4B4 |
B2B2cef6 | f2e2c2B6 |
f2f2ecB6 | B2B2cef6 |
f2fec2B6 | f2e2c2B6

